X:12
T:Wings
C:Trad.
L:1/8
M:4/4
Q:1/4=56
K:D
e3- |
e | {/g}A2 {/GdGe}A>B {/GdG}c3 e | {/g}f2 {/GdG}fa {/ef}e2 {/gcd}ce | {/g}f>g af{/g} e<c {/gBd}B{/G}A |
{/g} B>c{/Gdc} dc{/gBd} Be{/gde} dB |!
{/g} A2{/GdGe} A>B{/GdG} c3 e | {/g}f2 {/GdG}fa {/ef} e2{/gcd} ce | {/g} f>g af{/g} e<c{/g} B3/2{/d}c/ | 
{/G}A4 {/GAG}A3 |]!
 e | {/ag}a2 {/g}a2 {/GdG}ag{/fg} fe | {/g}f2 {/GdG}fa {/fg}fe {/gcd}ce | {/g}f>g af {/g}e<c {/gBd}B{/G}A |
{/g}B>c {/Gdc}d>c {/gBd}Be {/gde}dB |!
{/g} A2{/GdGe} A>B{/GdG} c3 e |{/g} f2 {/GdG}fa{/ef} e2{/gcd} ce |{/g} f>g af{/g} e<c{/g} B3/2{/d}c/ |
{/G} A4{/GAG} A3 |]

